X: 041
T: Miss Jane Tytler's Favourite
C: by John Pringle
B: John Pringle "Collection of Reels Strathspeys & Jigs", 1801 p.4#1
Z: 2011 John Chambers <jc:trillian.mit.edu>
Q: "Slow"
R: jig, air
M: 6/8
L: 1/8
K: G
V: 1
B/c/ |\
dBG ~EFG | DB,G, G,2B/c/ |\
dBG ~c>de | e/d/c/B/A/G/ F/A/D/A/B/c/ |\
dBg eca | gbd' He'2e/f/ |
g/b/B/^d/e/B/ c/e/A/B/c/A/ | B/d/c/A/D/F/ G2 :|\
B/c/ |\
dBG e>cA | GFE ~c3 | {c}BAG FGA |
G/B/A/G/F/E/ D3 | ECA FDd | BGg/f/ He3 |\
B/g/f/e/d/c/ B/e/d/c/B/A/ | A/c/B/e/d/F/ G2 |]
V: 2 clef=bass middle=d
z | g3 c3 | G6 | g2=f ed^c | d3 d>cB/A/ | G3 c2c' | b2g Hc'2z |
G^G2 AF2 | G/B/e/c/d/D/ G2 :| z | B3 c2^c d^de fa=d | g2b d'2d |
gzz B/d/c/B/A/G/ | c2^c d2f | g2b Hc'3 | bz c' d'z d | f/a/g/c/d/D/ G2 |]

%%sep 2 1 500

